beta/svg/badges/nodejs.svg

<svg data-class data-style data-id role="img" aria-labelledby="titleId" viewBox="0 0 512 314" version="1.1" xmlns="http://www.w3.org/2000/svg" xmlns:xlink="http://www.w3.org/1999/xlink" preserveAspectRatio="xMidYMid">
    <title id="titleId">NodeJS</title>
    <defs>
        <linearGradient x1="68.1884411%" y1="17.4868311%" x2="27.8226935%" y2="89.7551419%" id="linearGradient-1">
            <stop stop-color="#41873F" offset="0%"/>
            <stop stop-color="#418B3D" offset="32.88%"/>
            <stop stop-color="#419637" offset="63.52%"/>
            <stop stop-color="#3FA92D" offset="93.19%"/>
            <stop stop-color="#3FAE2A" offset="100%"/>
        </linearGradient>
        <path role="presentation" id="path-2" d="M57.903386,1.84920993 C56.0541761,0.809029345 53.8582393,0.809029345 52.0090293,1.84920993 L3.351693,29.9340858 C1.50248307,30.9742664 0.462302483,32.9390519 0.462302483,35.0194131 L0.462302483,91.3047404 C0.462302483,93.3851016 1.61805869,95.3498871 3.351693,96.3900677 L52.0090293,124.474944 C53.8582393,125.515124 56.0541761,125.515124 57.903386,124.474944 L106.560722,96.3900677 C108.409932,95.3498871 109.450113,93.3851016 109.450113,91.3047404 L109.450113,35.0194131 C109.450113,32.9390519 108.294357,30.9742664 106.560722,29.9340858 L57.903386,1.84920993 L57.903386,1.84920993 Z"/>
        <linearGradient x1="43.2765472%" y1="55.168777%" x2="159.245277%" y2="-18.3061379%" id="linearGradient-4">
            <stop stop-color="#41873F" offset="13.76%"/>
            <stop stop-color="#54A044" offset="40.32%"/>
            <stop stop-color="#66B848" offset="71.36%"/>
            <stop stop-color="#6CC04A" offset="90.81%"/>
        </linearGradient>
        <linearGradient x1="-4413.77%" y1="13.43%" x2="5327.93%" y2="13.43%" id="linearGradient-5">
            <stop stop-color="#6CC04A" offset="9.191646%"/>
            <stop stop-color="#66B848" offset="28.64%"/>
            <stop stop-color="#54A044" offset="59.68%"/>
            <stop stop-color="#41873F" offset="86.24%"/>
        </linearGradient>
        <linearGradient x1="-4.38880435%" y1="49.9972065%" x2="101.499239%" y2="49.9972065%" id="linearGradient-6">
            <stop stop-color="#6CC04A" offset="9.191646%"/>
            <stop stop-color="#66B848" offset="28.64%"/>
            <stop stop-color="#54A044" offset="59.68%"/>
            <stop stop-color="#41873F" offset="86.24%"/>
        </linearGradient>
        <linearGradient x1="-9713.77%" y1="36.21%" x2="27.93%" y2="36.21%" id="linearGradient-7">
            <stop stop-color="#6CC04A" offset="9.191646%"/>
            <stop stop-color="#66B848" offset="28.64%"/>
            <stop stop-color="#54A044" offset="59.68%"/>
            <stop stop-color="#41873F" offset="86.24%"/>
        </linearGradient>
        <linearGradient x1="-103.860714%" y1="50.2754209%" x2="100.796849%" y2="50.2754209%" id="linearGradient-8">
            <stop stop-color="#6CC04A" offset="9.191646%"/>
            <stop stop-color="#66B848" offset="28.64%"/>
            <stop stop-color="#54A044" offset="59.68%"/>
            <stop stop-color="#41873F" offset="86.24%"/>
        </linearGradient>
        <linearGradient x1="130.613025%" y1="-211.06936%" x2="4.39327731%" y2="201.605387%" id="linearGradient-9">
            <stop stop-color="#41873F" offset="0%"/>
            <stop stop-color="#418B3D" offset="32.88%"/>
            <stop stop-color="#419637" offset="63.52%"/>
            <stop stop-color="#3FA92D" offset="93.19%"/>
            <stop stop-color="#3FAE2A" offset="100%"/>
        </linearGradient>
    </defs>
	<g fill="none">
		<path role="presentation" d="M253.110609,313.094357 C251.376975,313.094357 249.758916,312.632054 248.256433,311.823025 L232.884876,302.692551 C230.573363,301.421219 231.72912,300.958916 232.422573,300.727765 C235.543115,299.687585 236.120993,299.456433 239.357111,297.607223 C239.703837,297.376072 240.16614,297.491648 240.512867,297.722799 L252.30158,304.772912 C252.763883,305.004063 253.341761,305.004063 253.688488,304.772912 L299.80316,278.074944 C300.265463,277.843792 300.496614,277.38149 300.496614,276.803612 L300.496614,223.523251 C300.496614,222.945372 300.265463,222.48307 299.80316,222.251919 L253.688488,195.669526 C253.226185,195.438375 252.648307,195.438375 252.30158,195.669526 L206.186907,222.251919 C205.724605,222.48307 205.493454,223.060948 205.493454,223.523251 L205.493454,276.803612 C205.493454,277.265914 205.724605,277.843792 206.186907,278.074944 L218.78465,285.356208 C225.603612,288.823476 229.87991,284.77833 229.87991,280.733183 L229.87991,228.146275 C229.87991,227.452822 230.457788,226.759368 231.266817,226.759368 L237.161174,226.759368 C237.854628,226.759368 238.548081,227.337246 238.548081,228.146275 L238.548081,280.733183 C238.548081,289.863657 233.57833,295.180135 224.910158,295.180135 C222.251919,295.180135 220.171558,295.180135 214.277201,292.290745 L202.141761,285.356208 C199.136795,283.622573 197.287585,280.386456 197.287585,276.919187 L197.287585,223.638826 C197.287585,220.171558 199.136795,216.93544 202.141761,215.201806 L248.256433,188.503837 C251.145824,186.885779 255.075395,186.885779 257.964786,188.503837 L304.079458,215.201806 C307.084424,216.93544 308.933634,220.171558 308.933634,223.638826 L308.933634,276.919187 C308.933634,280.386456 307.084424,283.622573 304.079458,285.356208 L257.964786,312.054176 C256.462302,312.74763 254.728668,313.094357 253.110609,313.094357 Z M267.326411,276.456885 C247.100677,276.456885 242.939955,267.210835 242.939955,259.351693 C242.939955,258.658239 243.517833,257.964786 244.326862,257.964786 L250.336795,257.964786 C251.030248,257.964786 251.608126,258.427088 251.608126,259.120542 C252.532731,265.24605 255.190971,268.251016 267.441986,268.251016 C277.150339,268.251016 281.311061,266.055079 281.311061,260.854176 C281.311061,257.84921 280.155305,255.653273 265.014898,254.15079 C252.417156,252.879458 244.558014,250.105643 244.558014,240.050564 C244.558014,230.688939 252.417156,225.141309 265.592777,225.141309 C280.386456,225.141309 287.66772,230.226637 288.592325,241.321896 C288.592325,241.668623 288.476749,242.01535 288.245598,242.362077 C288.014447,242.593228 287.66772,242.824379 287.320993,242.824379 L281.311061,242.824379 C280.733183,242.824379 280.155305,242.362077 280.039729,241.784199 C278.652822,235.42754 275.069977,233.347178 265.592777,233.347178 C254.959819,233.347178 253.688488,237.045598 253.688488,239.819413 C253.688488,243.171106 255.190971,244.211287 269.522348,246.060497 C283.738149,247.909707 290.441535,250.567946 290.441535,260.507449 C290.325959,270.678104 282.004515,276.456885 267.326411,276.456885 Z" fill="#539E43"/>
		<path role="presentation" d="M110.027991,104.711512 C110.027991,102.631151 108.872235,100.666366 107.023025,99.6261851 L58.0189616,71.4257336 C57.2099323,70.9634312 56.2853273,70.7322799 55.3607223,70.6167043 L54.8984199,70.6167043 C53.9738149,70.6167043 53.0492099,70.9634312 52.2401806,71.4257336 L3.23611738,99.6261851 C1.38690745,100.666366 0.231151242,102.631151 0.231151242,104.711512 L0.346726862,180.52912 C0.346726862,181.5693 0.924604966,182.609481 1.84920993,183.071783 C2.7738149,183.649661 3.92957111,183.649661 4.73860045,183.071783 L33.8636569,166.428894 C35.7128668,165.388713 36.868623,163.423928 36.868623,161.343567 L36.868623,125.861851 C36.868623,123.78149 38.0243792,121.816704 39.8735892,120.776524 L52.2401806,113.610835 C53.1647856,113.032957 54.2049661,112.801806 55.2451467,112.801806 C56.2853273,112.801806 57.3255079,113.032957 58.1345372,113.610835 L70.5011287,120.776524 C72.3503386,121.816704 73.5060948,123.78149 73.5060948,125.861851 L73.5060948,161.343567 C73.5060948,163.423928 74.661851,165.388713 76.5110609,166.428894 L105.636117,183.071783 C106.560722,183.649661 107.716479,183.649661 108.641084,183.071783 C109.565688,182.609481 110.143567,181.5693 110.143567,180.52912 L110.027991,104.711512 L110.027991,104.711512 Z" fill="#333333"/>
		<path role="presentation" d="M345.571106,0.346726862 C344.646501,-0.115575621 343.490745,-0.115575621 342.681716,0.346726862 C341.757111,0.924604966 341.179233,1.84920993 341.179233,2.88939052 L341.179233,78.013544 C341.179233,78.7069977 340.832506,79.4004515 340.139052,79.862754 C339.445598,80.2094808 338.752144,80.2094808 338.058691,79.862754 L325.807675,72.8126411 C323.958465,71.7724605 321.762528,71.7724605 319.913318,72.8126411 L270.909255,101.128668 C269.060045,102.168849 267.904289,104.133634 267.904289,106.213995 L267.904289,162.730474 C267.904289,164.810835 269.060045,166.775621 270.909255,167.815801 L319.913318,196.131828 C321.762528,197.172009 323.958465,197.172009 325.807675,196.131828 L374.811738,167.815801 C376.660948,166.775621 377.816704,164.810835 377.816704,162.730474 L377.816704,21.8437923 C377.816704,19.6478555 376.660948,17.68307 374.811738,16.6428894 L345.571106,0.346726862 L345.571106,0.346726862 Z M341.063657,144.122799 C341.063657,144.700677 340.832506,145.16298 340.370203,145.394131 L323.611738,155.102483 C323.149436,155.333634 322.571558,155.333634 322.109255,155.102483 L305.35079,145.394131 C304.888488,145.16298 304.657336,144.585102 304.657336,144.122799 L304.657336,124.706095 C304.657336,124.128217 304.888488,123.665914 305.35079,123.434763 L322.109255,113.726411 C322.571558,113.49526 323.149436,113.49526 323.611738,113.726411 L340.370203,123.434763 C340.832506,123.665914 341.063657,124.243792 341.063657,124.706095 L341.063657,144.122799 L341.063657,144.122799 Z" fill="#333333"/>
		<g transform="translate(401.047404, 70.501129)">
			<path role="presentation" d="M107.600903,53.7426637 C109.450113,52.7024831 110.490293,50.7376975 110.490293,48.6573363 L110.490293,34.9038375 C110.490293,32.8234763 109.334537,30.8586907 107.600903,29.8185102 L58.9435666,1.61805869 C57.0943567,0.577878104 54.8984199,0.577878104 53.0492099,1.61805869 L4.04514673,29.9340858 C2.19593679,30.9742664 1.04018059,32.9390519 1.04018059,35.0194131 L1.04018059,91.5358916 C1.04018059,93.6162528 2.19593679,95.5810384 4.04514673,96.621219 L52.7024831,124.359368 C54.551693,125.399549 56.7476298,125.399549 58.4812641,124.359368 L87.9530474,107.94763 C88.8776524,107.485327 89.4555305,106.445147 89.4555305,105.404966 C89.4555305,104.364786 88.8776524,103.324605 87.9530474,102.862302 L38.717833,74.5462754 C37.793228,73.9683973 37.2153499,73.0437923 37.2153499,72.0036117 L37.2153499,54.3205418 C37.2153499,53.2803612 37.793228,52.2401806 38.717833,51.7778781 L54.0893905,42.9941309 C55.0139955,42.4162528 56.1697517,42.4162528 57.0943567,42.9941309 L72.4659142,51.7778781 C73.3905192,52.3557562 73.9683973,53.2803612 73.9683973,54.3205418 L73.9683973,68.1896163 C73.9683973,69.2297968 74.5462754,70.2699774 75.4708804,70.7322799 C76.3954853,71.310158 77.5512415,71.310158 78.4758465,70.7322799 L107.600903,53.7426637 L107.600903,53.7426637 Z" fill="#333333"/>
			<path role="presentation" d="M55.2451467,51.0844244 C55.5918736,50.8532731 56.0541761,50.8532731 56.4009029,51.0844244 L65.7625282,56.5164786 C66.1092551,56.7476298 66.3404063,57.0943567 66.3404063,57.5566591 L66.3404063,68.4207675 C66.3404063,68.88307 66.1092551,69.2297968 65.7625282,69.4609481 L56.4009029,74.8930023 C56.0541761,75.1241535 55.5918736,75.1241535 55.2451467,74.8930023 L45.8835214,69.4609481 C45.5367946,69.2297968 45.3056433,68.88307 45.3056433,68.4207675 L45.3056433,57.5566591 C45.3056433,57.0943567 45.5367946,56.7476298 45.8835214,56.5164786 L55.2451467,51.0844244 L55.2451467,51.0844244 Z" fill="#539E43"/>
		</g>
		<g transform="translate(134.067720, 70.501129)">
			<mask id="mask-3" fill="white">
				<use xlink:href="#path-2"/>
			</mask>
			<use fill="url(#linearGradient-1)" xlink:href="#path-2"/>
			<g mask="url(#mask-3)">
				<path role="presentation" d="M51.8934537,1.84920993 L3.12054176,29.9340858 C1.27133183,30.9742664 0,32.9390519 0,35.0194131 L0,91.3047404 C0,92.6916479 0.577878104,93.9629797 1.50248307,95.0031603 L56.2853273,1.15575621 C54.8984199,0.924604966 53.2803612,1.04018059 51.8934537,1.84920993 L51.8934537,1.84920993 Z"/>
				<path role="presentation" d="M56.6320542,125.052822 C57.0943567,124.937246 57.5566591,124.706095 58.0189616,124.474944 L106.791874,96.3900677 C108.641084,95.3498871 109.79684,93.3851016 109.79684,91.3047404 L109.79684,35.0194131 C109.79684,33.51693 109.103386,32.014447 108.063205,30.9742664 L56.6320542,125.052822 L56.6320542,125.052822 Z"/>
				<path role="presentation" d="M106.676298,29.9340858 L57.7878104,1.84920993 C57.3255079,1.61805869 56.7476298,1.38690745 56.2853273,1.27133183 L1.50248307,95.1187359 C1.96478555,95.696614 2.54266366,96.1589165 3.12054176,96.5056433 L52.0090293,124.590519 C53.3959368,125.399549 55.0139955,125.6307 56.5164786,125.168397 L107.94763,31.089842 C107.600903,30.6275395 107.1386,30.2808126 106.676298,29.9340858 L106.676298,29.9340858 Z" fill="url(#linearGradient-4)"/>
			</g>
			<g mask="url(#mask-3)">
				<g transform="translate(0.000000, -9.246050)">
					<path role="presentation" d="M109.79684,100.55079 L109.79684,44.2654628 C109.79684,42.1851016 108.525508,40.220316 106.676298,39.1801354 L57.7878104,11.0952596 C57.2099323,10.7485327 56.6320542,10.5173815 55.9386005,10.4018059 L109.450113,101.822122 C109.681264,101.475395 109.79684,101.013093 109.79684,100.55079 L109.79684,100.55079 Z" fill="none"/>
					<path role="presentation" d="M3.12054176,39.1801354 C1.27133183,40.220316 0,42.1851016 0,44.2654628 L0,100.55079 C0,102.631151 1.38690745,104.595937 3.12054176,105.636117 L52.0090293,133.720993 C53.1647856,134.414447 54.4361174,134.645598 55.8230248,134.414447 L3.46726862,39.0645598 L3.12054176,39.1801354 L3.12054176,39.1801354 Z" fill="none"/>
					<path role="presentation" fill="url(#linearGradient-5)" fill-rule="evenodd" d="M50.3909707,0.809029345 L49.6975169,1.15575621 L50.6221219,1.15575621 L50.3909707,0.809029345 Z"/>
					<path role="presentation" d="M106.791874,105.636117 C108.178781,104.827088 109.218962,103.440181 109.681264,101.937698 L56.0541761,10.4018059 C54.6672686,10.1706546 53.1647856,10.2862302 51.8934537,11.0952596 L3.351693,39.0645598 L55.7074492,134.530023 C56.4009029,134.414447 57.2099323,134.183296 57.903386,133.836569 L106.791874,105.636117 L106.791874,105.636117 Z" fill="url(#linearGradient-6)" fill-rule="evenodd"/>
					<path role="presentation" fill="url(#linearGradient-7)" fill-rule="evenodd" d="M111.299323,104.711512 L110.952596,104.133634 L110.952596,104.942664 L111.299323,104.711512 Z"/>
					<path role="presentation" d="M106.791874,105.636117 L58.0189616,133.720993 C57.3255079,134.06772 56.6320542,134.298871 55.8230248,134.414447 L56.7476298,136.148081 L110.83702,104.827088 L110.83702,104.133634 L109.450113,101.822122 C109.218962,103.440181 108.178781,104.827088 106.791874,105.636117 L106.791874,105.636117 Z" fill="url(#linearGradient-8)" fill-rule="evenodd"/>
					<path role="presentation" d="M106.791874,105.636117 L58.0189616,133.720993 C57.3255079,134.06772 56.6320542,134.298871 55.8230248,134.414447 L56.7476298,136.148081 L110.83702,104.827088 L110.83702,104.133634 L109.450113,101.822122 C109.218962,103.440181 108.178781,104.827088 106.791874,105.636117 L106.791874,105.636117 Z" fill="url(#linearGradient-9)" fill-rule="evenodd"/>
				</g>
			</g>
		</g>
	</g>
</svg>

<svg data-custom-class="no-empty" data-custom-style="no-empty" data-custom-id="no-empty" role="img" aria-labelledby="titleId" viewBox="0 0 512 314" version="1.1" xmlns="http://www.w3.org/2000/svg" xmlns:xlink="http://www.w3.org/1999/xlink" preserveAspectRatio="xMidYMid"><title id="titleId">NodeJS</title><defs><linearGradient x1="68.188%" y1="17.487%" x2="27.823%" y2="89.755%" id="linearGradient-1"><stop stop-color="#41873F" offset="0%"/><stop stop-color="#418B3D" offset="32.88%"/><stop stop-color="#419637" offset="63.52%"/><stop stop-color="#3FA92D" offset="93.19%"/><stop stop-color="#3FAE2A" offset="100%"/></linearGradient><path role="presentation" id="path-2" d="M57.903 1.85a5.957 5.957 0 0 0-5.894 0L3.352 29.933c-1.85 1.04-2.89 3.005-2.89 5.085v56.286c0 2.08 1.156 4.045 2.89 5.085l48.657 28.085a5.957 5.957 0 0 0 5.894 0l48.658-28.085c1.849-1.04 2.89-3.005 2.89-5.085V35.019c0-2.08-1.157-4.045-2.89-5.085L57.903 1.85z"/><linearGradient x1="43.277%" y1="55.169%" x2="159.245%" y2="-18.306%" id="linearGradient-4"><stop stop-color="#41873F" offset="13.76%"/><stop stop-color="#54A044" offset="40.32%"/><stop stop-color="#66B848" offset="71.36%"/><stop stop-color="#6CC04A" offset="90.81%"/></linearGradient><linearGradient x1="-4413.77%" y1="13.43%" x2="5327.93%" y2="13.43%" id="linearGradient-5"><stop stop-color="#6CC04A" offset="9.192%"/><stop stop-color="#66B848" offset="28.64%"/><stop stop-color="#54A044" offset="59.68%"/><stop stop-color="#41873F" offset="86.24%"/></linearGradient><linearGradient x1="-4.389%" y1="49.997%" x2="101.499%" y2="49.997%" id="linearGradient-6"><stop stop-color="#6CC04A" offset="9.192%"/><stop stop-color="#66B848" offset="28.64%"/><stop stop-color="#54A044" offset="59.68%"/><stop stop-color="#41873F" offset="86.24%"/></linearGradient><linearGradient x1="-9713.77%" y1="36.21%" x2="27.93%" y2="36.21%" id="linearGradient-7"><stop stop-color="#6CC04A" offset="9.192%"/><stop stop-color="#66B848" offset="28.64%"/><stop stop-color="#54A044" offset="59.68%"/><stop stop-color="#41873F" offset="86.24%"/></linearGradient><linearGradient x1="-103.861%" y1="50.275%" x2="100.797%" y2="50.275%" id="linearGradient-8"><stop stop-color="#6CC04A" offset="9.192%"/><stop stop-color="#66B848" offset="28.64%"/><stop stop-color="#54A044" offset="59.68%"/><stop stop-color="#41873F" offset="86.24%"/></linearGradient><linearGradient x1="130.613%" y1="-211.069%" x2="4.393%" y2="201.605%" id="linearGradient-9"><stop stop-color="#41873F" offset="0%"/><stop stop-color="#418B3D" offset="32.88%"/><stop stop-color="#419637" offset="63.52%"/><stop stop-color="#3FA92D" offset="93.19%"/><stop stop-color="#3FAE2A" offset="100%"/></linearGradient></defs><g fill="none"><path role="presentation" d="M253.11 313.094c-1.733 0-3.351-.462-4.854-1.271l-15.371-9.13c-2.312-1.272-1.156-1.734-.462-1.965 3.12-1.04 3.698-1.272 6.934-3.12.347-.232.81-.116 1.156.115l11.789 7.05c.462.231 1.04.231 1.386 0l46.115-26.698c.462-.231.694-.694.694-1.271v-53.28c0-.579-.232-1.04-.694-1.272l-46.115-26.582c-.462-.232-1.04-.232-1.386 0l-46.115 26.582c-.462.231-.694.809-.694 1.271v53.28c0 .463.232 1.04.694 1.272l12.598 7.281c6.819 3.467 11.095-.578 11.095-4.623v-52.587c0-.693.578-1.387 1.387-1.387h5.894c.694 0 1.387.578 1.387 1.387v52.587c0 9.13-4.97 14.447-13.638 14.447-2.658 0-4.738 0-10.633-2.89l-12.135-6.934c-3.005-1.733-4.854-4.97-4.854-8.437v-53.28c0-3.467 1.849-6.704 4.854-8.437l46.114-26.698c2.89-1.618 6.82-1.618 9.709 0l46.114 26.698c3.005 1.733 4.855 4.97 4.855 8.437v53.28c0 3.467-1.85 6.704-4.855 8.437l-46.114 26.698c-1.503.694-3.236 1.04-4.854 1.04zm14.216-36.637c-20.225 0-24.386-9.246-24.386-17.105 0-.694.578-1.387 1.387-1.387h6.01c.693 0 1.271.462 1.271 1.156.925 6.125 3.583 9.13 15.834 9.13 9.708 0 13.87-2.196 13.87-7.397 0-3.005-1.157-5.2-16.297-6.703-12.598-1.272-20.457-4.045-20.457-14.1 0-9.362 7.86-14.91 21.035-14.91 14.793 0 22.075 5.086 23 16.18 0 .348-.116.694-.347 1.041-.232.231-.578.462-.925.462h-6.01c-.578 0-1.156-.462-1.271-1.04-1.387-6.356-4.97-8.437-14.447-8.437-10.633 0-11.905 3.699-11.905 6.472 0 3.352 1.503 4.392 15.834 6.241 14.216 1.85 20.92 4.508 20.92 14.447-.116 10.171-8.437 15.95-23.116 15.95z" fill="#539E43"/><path role="presentation" d="M110.028 104.712c0-2.08-1.156-4.046-3.005-5.086l-49.004-28.2c-.81-.463-1.734-.694-2.658-.81h-.463c-.924 0-1.849.347-2.658.81l-49.004 28.2c-1.85 1.04-3.005 3.005-3.005 5.086l.116 75.817c0 1.04.578 2.08 1.502 2.543.925.578 2.08.578 2.89 0l29.125-16.643c1.849-1.04 3.005-3.005 3.005-5.085v-35.482c0-2.08 1.155-4.045 3.005-5.085l12.366-7.166c.925-.578 1.965-.81 3.005-.81 1.04 0 2.08.232 2.89.81l12.366 7.166c1.85 1.04 3.005 3.004 3.005 5.085v35.482c0 2.08 1.156 4.045 3.005 5.085l29.125 16.643a2.82 2.82 0 0 0 3.005 0c.925-.463 1.503-1.503 1.503-2.543l-.116-75.817zM345.571.347c-.924-.463-2.08-.463-2.89 0-.924.578-1.502 1.502-1.502 2.542v75.125c0 .693-.346 1.386-1.04 1.849-.693.346-1.387.346-2.08 0l-12.251-7.05a5.957 5.957 0 0 0-5.895 0l-49.004 28.316c-1.849 1.04-3.005 3.005-3.005 5.085v56.516c0 2.08 1.156 4.046 3.005 5.086l49.004 28.316a5.957 5.957 0 0 0 5.895 0l49.004-28.316c1.849-1.04 3.005-3.005 3.005-5.086V21.844c0-2.196-1.156-4.16-3.005-5.201L345.572.347zm-4.507 143.776c0 .578-.231 1.04-.694 1.271l-16.758 9.708a1.714 1.714 0 0 1-1.503 0l-16.758-9.708c-.463-.231-.694-.809-.694-1.271v-19.417c0-.578.231-1.04.694-1.271l16.758-9.709a1.714 1.714 0 0 1 1.503 0l16.758 9.709c.463.23.694.809.694 1.271v19.417zm167.584-19.879c1.85-1.04 2.89-3.005 2.89-5.086v-13.753c0-2.08-1.156-4.045-2.89-5.085l-48.657-28.2a5.957 5.957 0 0 0-5.894 0l-49.004 28.315c-1.85 1.04-3.005 3.005-3.005 5.086v56.516c0 2.08 1.155 4.045 3.005 5.085l48.657 27.738c1.85 1.04 4.045 1.04 5.779 0L489 178.45c.925-.463 1.503-1.503 1.503-2.543 0-1.04-.578-2.08-1.503-2.543l-49.235-28.316c-.924-.577-1.502-1.502-1.502-2.542v-17.683c0-1.04.578-2.08 1.502-2.543l15.372-8.784a2.821 2.821 0 0 1 3.005 0l15.371 8.784c.925.578 1.503 1.502 1.503 2.543v13.869c0 1.04.578 2.08 1.502 2.542a2.82 2.82 0 0 0 3.005 0l29.125-16.99z" fill="#333"/><path role="presentation" d="M456.293 121.586a1.05 1.05 0 0 1 1.155 0l9.362 5.432c.347.23.578.577.578 1.04v10.864c0 .462-.231.809-.578 1.04l-9.362 5.432a1.05 1.05 0 0 1-1.155 0l-9.362-5.432c-.347-.231-.578-.578-.578-1.04v-10.864c0-.463.231-.81.578-1.04l9.362-5.432z" fill="#539E43"/><g transform="translate(134.068 70.501)"><mask id="mask-3" fill="#fff"><use xlink:href="#path-2"/></mask><use fill="url(#linearGradient-1)" xlink:href="#path-2"/><g mask="url(#mask-3)"><path role="presentation" d="M51.893 1.85L3.121 29.933C1.27 30.974 0 32.94 0 35.02v56.286c0 1.387.578 2.658 1.502 3.698L56.285 1.156c-1.387-.231-3.005-.116-4.392.693zm4.739 123.203c.462-.116.925-.347 1.387-.578l48.773-28.085c1.85-1.04 3.005-3.005 3.005-5.085V35.019c0-1.502-.694-3.005-1.734-4.045l-51.43 94.079z"/><path role="presentation" d="M106.676 29.934L57.788 1.85a8.025 8.025 0 0 0-1.503-.578L1.502 95.12a6.082 6.082 0 0 0 1.619 1.387l48.888 28.085c1.387.809 3.005 1.04 4.507.577l51.432-94.078c-.347-.462-.81-.81-1.272-1.156z" fill="url(#linearGradient-4)"/></g><g mask="url(#mask-3)"><path role="presentation" d="M109.797 91.305V35.019c0-2.08-1.271-4.045-3.12-5.085L57.786 1.85a5.106 5.106 0 0 0-1.848-.693l53.511 91.42c.231-.347.347-.809.347-1.271zM3.12 29.934C1.272 30.974 0 32.94 0 35.02v56.286c0 2.08 1.387 4.045 3.12 5.085l48.889 28.085c1.156.693 2.427.925 3.814.693L3.467 29.818l-.346.116z" fill="none"/><path role="presentation" fill="url(#linearGradient-5)" fill-rule="evenodd" d="M50.391.809l-.693.347h.924l-.231-.347z" transform="translate(0 -9.246)"/><path role="presentation" d="M106.792 105.636c1.387-.809 2.427-2.196 2.89-3.698L56.053 10.402c-1.387-.231-2.89-.116-4.16.693L3.351 39.065l52.355 95.465a8.057 8.057 0 0 0 2.196-.693l48.889-28.2z" fill="url(#linearGradient-6)" fill-rule="evenodd" transform="translate(0 -9.246)"/><path role="presentation" fill="url(#linearGradient-7)" fill-rule="evenodd" d="M111.3 104.712l-.347-.578v.809l.346-.231z" transform="translate(0 -9.246)"/><path role="presentation" d="M106.792 105.636l-48.773 28.085a6.973 6.973 0 0 1-2.196.693l.925 1.734 54.089-31.32v-.694l-1.387-2.312c-.231 1.618-1.271 3.005-2.658 3.814z" fill="url(#linearGradient-8)" fill-rule="evenodd" transform="translate(0 -9.246)"/><path role="presentation" d="M106.792 105.636l-48.773 28.085a6.973 6.973 0 0 1-2.196.693l.925 1.734 54.089-31.32v-.694l-1.387-2.312c-.231 1.618-1.271 3.005-2.658 3.814z" fill="url(#linearGradient-9)" fill-rule="evenodd" transform="translate(0 -9.246)"/></g></g></g></svg>
